X: 1
T: Grannie's
M: 4/4
L: 1/8
R: hornpipe
K: Gmaj
cB AG AB cd|ec Ac dB GB|cB AG AB cd|1e2 ge dB GB:|2ef g/2f/2e dB GB||
cg fa g2 eg|cg eg dB GB|cg fa g2 fg|af ge dB GB|
cg fa g/2a/2g eg|cg e/2f/2g dB GB|cg fa g2 ab|af ge dB GB|
